src/shared/svg/sidebar/Store_Analytics.svg

<svg width="20" height="20" viewBox="0 0 20 20" fill="none" xmlns="http://www.w3.org/2000/svg">
<path d="M9 4C9 4.52656 8.79688 5.00563 8.4625 5.3625L9.30313 7.1625C9.68438 7.05625 10.0844 7 10.5 7C11.6906 7 12.825 7.48438 13.6344 8.27187L16.0594 6.49062C16.0219 6.33437 16 6.16875 16 6C16 4.89531 16.8969 4 18 4C19.1031 4 20 4.89531 20 6C20 7.10313 19.1031 8 18 8C17.6156 8 17.2531 7.89062 16.9469 7.7L14.5219 9.48125C14.8281 10.0875 15 10.775 15 11.5C15 12.0781 14.8906 12.6313 14.6906 13.1406L16.7969 14.4031C17.1313 14.15 17.5469 14 18 14C19.1031 14 20 14.8969 20 16C20 17.1031 19.1031 18 18 18C16.8969 18 16 17.1031 16 16C16 15.8938 16.0094 15.7906 16.025 15.6906L13.9187 14.425C13.0656 15.3906 11.8687 16 10.5 16C8.26875 16 6.41875 14.3781 6.03438 12.25H3.85313C3.55938 12.9844 2.83938 13.5 2 13.5C0.895313 13.5 0 12.6031 0 11.5C0 10.3969 0.895313 9.5 2 9.5C2.83938 9.5 3.55938 10.0156 3.85313 10.75H6.03438C6.26875 9.52812 6.96562 8.47188 7.94375 7.79688L7.10313 5.99688C7.06875 5.97187 7.03438 6 7 6C5.89687 6 5 5.10469 5 4C5 2.89531 5.89687 2 7 2C8.10312 2 9 2.89531 9 4ZM10.5 14.5C12.1562 14.5 13.5 13.1562 13.5 11.5C13.5 9.81563 12.1562 8.5 10.5 8.5C8.81563 8.5 7.5 9.81563 7.5 11.5C7.5 13.1562 8.81563 14.5 10.5 14.5Z" fill="#8A8DBA"/>
</svg>

<svg width="20" height="20" viewBox="0 0 20 20" fill="none" xmlns="http://www.w3.org/2000/svg"><path d="M9 4c0 .527-.203 1.006-.537 1.362l.84 1.8A4.445 4.445 0 0 1 10.5 7c1.19 0 2.325.484 3.134 1.272L16.06 6.49A2 2 0 1 1 20 6a2.002 2.002 0 0 1-3.052 1.699L14.523 9.48A4.47 4.47 0 0 1 15 11.5c0 .578-.11 1.131-.31 1.64l2.107 1.263A2.002 2.002 0 0 1 20 16c0 1.103-.897 2-2 2a2.002 2.002 0 0 1-1.975-2.31l-2.106-1.265C13.066 15.391 11.869 16 10.5 16c-2.231 0-4.081-1.622-4.466-3.75h-2.18A2 2 0 1 1 2 9.5c.838 0 1.558.516 1.852 1.25h2.181a4.646 4.646 0 0 1 1.91-2.953l-.84-1.8C7.068 5.972 7.033 6 7 6a2 2 0 1 1 2-2Zm1.5 10.5a3 3 0 0 0 3-3c0-1.684-1.344-3-3-3-1.684 0-3 1.316-3 3 0 1.656 1.316 3 3 3Z" fill="#8A8DBA"/></svg>
